src/assets/outline/Graph.svg

<svg width="24" height="24" viewBox="0 0 24 24"  xmlns="http://www.w3.org/2000/svg">
<path d="M18.32 12.7504H15C12.51 12.7504 11.25 11.3404 11.25 8.55045V5.68045C11.25 4.66045 11.37 3.20045 12.43 2.40045C13.32 1.74045 14.6 1.69045 16.49 2.24045C18.97 2.96045 21.04 5.03045 21.76 7.51045C22.31 9.39045 22.26 10.6804 21.6 11.5604C20.8 12.6304 19.34 12.7504 18.32 12.7504ZM14.28 3.36045C13.87 3.36045 13.55 3.44045 13.34 3.60045C12.95 3.89045 12.76 4.57045 12.76 5.68045V8.56045C12.76 10.8004 13.62 11.2604 15.01 11.2604H18.33C19.43 11.2604 20.11 11.0704 20.41 10.6804C20.76 10.2204 20.73 9.30045 20.34 7.95045C19.76 5.98045 18.06 4.27045 16.09 3.70045C15.35 3.47045 14.75 3.36045 14.28 3.36045Z" />
<path d="M11.0699 22.7503C10.5399 22.7503 9.99988 22.7103 9.45988 22.6203C5.36988 21.9603 2.03988 18.6403 1.37988 14.5503C0.529883 9.29032 3.91988 4.33032 9.10988 3.27032C9.51988 3.19032 9.90988 3.45032 9.99988 3.85032C10.0799 4.26032 9.81988 4.65032 9.41988 4.74032C5.02988 5.64032 2.14988 9.84032 2.87988 14.3103C3.43988 17.7703 6.24988 20.5803 9.70988 21.1403C14.1999 21.8603 18.3899 18.9703 19.2799 14.5603C19.3599 14.1503 19.7599 13.8903 20.1599 13.9703C20.5699 14.0503 20.8299 14.4503 20.7499 14.8503C19.7999 19.5203 15.7199 22.7503 11.0699 22.7503Z" />
</svg>

<?xml version="1.0" encoding="UTF-8"?>
<svg width="24" height="24" viewBox="0 0 24 24" xmlns="http://www.w3.org/2000/svg">
 <path d="m18.32 12.75h-3.32c-2.49 0-3.75-1.41-3.75-4.2v-2.87c0-1.02 0.12-2.48 1.18-3.28 0.89-0.66 2.17-0.71 4.06-0.16 2.48 0.72 4.55 2.79 5.27 5.27 0.55 1.88 0.5 3.17-0.16 4.05-0.8 1.07-2.26 1.19-3.28 1.19zm-4.04-9.39c-0.41 0-0.73 0.08-0.94 0.24-0.39 0.29-0.58 0.97-0.58 2.08v2.88c0 2.24 0.86 2.7 2.25 2.7h3.32c1.1 0 1.78-0.19 2.08-0.58 0.35-0.46 0.32-1.38-0.07-2.73-0.58-1.97-2.28-3.68-4.25-4.25-0.74-0.23-1.34-0.34-1.81-0.34z"/>
 <path d="m11.07 22.75c-0.53 0-1.07-0.04-1.61-0.13-4.09-0.66-7.42-3.98-8.08-8.07-0.85-5.26 2.54-10.22 7.73-11.28 0.41-0.08 0.8 0.18 0.89 0.58 0.08002 0.41-0.18 0.8-0.58 0.89-4.39 0.9-7.27 5.1-6.54 9.57 0.56 3.46 3.37 6.27 6.83 6.83 4.49 0.72 8.68-2.17 9.57-6.58 0.08-0.41 0.48-0.67 0.88-0.59 0.41 0.08 0.67 0.48 0.59 0.88-0.95 4.67-5.03 7.9-9.68 7.9z"/>
</svg>
